X: 218
T: Zou xikou
L: 1/16
M: 2/4
K: C
d2 d d c d g2 [I:setbarnb 1]| 
e2> d2 c2 d2 | 
g2 g e e d c d | 
G2> A2 F2 D2 | 
A2d4g2 | 
e2 d e2< G2 A | 
c c2 d A G F E | 
D8 |]

@@@ Tune index: 9092
